X: 1
T: String Quartet in E\b Major opus 64 no 6 mvt 4
C: Franz Joseph Haydn
%%abc-version 2.0
%%abcx-abcm2ps-target-version 5.9.1 (29 Sep 2008)
%%abc-creator hum2abc beta
%%abcx-conversion-date 2021/02/14 14:38:25
%%abc-copyright Copyright (c) 1994, 2000 Center for Computer Assisted Research in the Humanities
%%abc-edited-by Frances Bennion
%%abcx-initial-encoding-date 1997/04/15
%%gracespace 0 6 6
%%humdrum-veritas 1145734974
%%humdrum-veritas-data 1079787654
%%linebreak <none>
%%barnumbers 0
L: 1/16
M: 2/4
N: Derived from op64n6-04.krn
Q: "Finale: Presto"
%%staves [1 2 3 4]
V: 1
V: 2
V: 3 clef=alto
V: 4 clef=bass
K: Eb
[V:1]z6 GA [I:setbarnb1]|
[V:2]z6 z2 |
[V:3]z6 z2 |
[V:4]z6 z2 |
[V:1]B2B2 B2AB |
[V:2]G2G2 G2z2 |
[V:3]E2E2 E2z2 |
[V:4]E,2E,2 E,2z2 |
[V:1]c2c2 c2de |
[V:2]A2A2 A2z2 |
[V:3]E2E2 E2z2 |
[V:4]E,2E,2 E,2z2 |
[V:1]f2fg a2ga |
[V:2][A,2D2]z2 [D2A,2]GF |
[V:3]B,2z2 B,2z2 |
[V:4]E,2z2 E,2z2 |
[V:1]bagf e2B2 |
[V:2]E4 z2B2 |
[V:3]G,4 z2B2 |
[V:4]E,4 z2B,2 |
[V:1]=A2_A2 G2_G2 |
[V:2]=A2_A2 G2_G2 |
[V:3]=A2_A2 G2_G2 |
[V:4]=A,2_A,2 G,2_G,2 |
[V:1]FEDE F2G2 |
[V:2]FEDE F2G2 |
[V:3]FEDE F2G2 |
[V:4]F,E,D,E, F,2G,2 |
[V:1]F2E2 D2C2 |
[V:2]F2E2 D2C2 |
[V:3]F2E2 D2C2 |
[V:4]F,2E,2 D,2C,2 |
[V:1]B,=A,B,C B,2GA |
[V:2]B,=A,B,C B,2z2 |
[V:3]B,=A,B,C B,2z2 |
[V:4]B,,=A,,B,,C, B,,2z2 |
[V:1]B2B2 B2AB |
[V:2]G2G2 G2z2 |
[V:3]E2E2 E2z2 |
[V:4]E,,2E,,2 E,,2z2 |
[V:1]c2c2 c2de |
[V:2]A2A2 A2z2 |
[V:3]E2E2 E2z2 |
[V:4]E,,2E,,2 E,,2z2 |
[V:1]f2fg a2ga |
[V:2][D2A,2]z2 [A,2D2]GF |
[V:3]B,2z2 B,2z2 |
[V:4]E,,2z2 E,,2z2 |
[V:1]bagf e2ef |
[V:2]E4 z4 |
[V:3]G,4 z4 |
[V:4]E,,4 z4 |
[V:1]gfed c2=B2 |
[V:2]c4 z2A2 |
[V:3]G,4 z2F2 |
[V:4]E,4 z2D2 |
[V:1]c2=B2 c2de |
[V:2]G2A2 G2FE |
[V:3]G2F2 G2z2 |
[V:4]E2D2 E2DC |
[V:1]fgfe dcB=A |
[V:2]D2z2 [=A2E2]z2 |
[V:3]F,2z2 C2z2 |
[V:4]B,2z2 F,2z2 |
[V:1]B4 z2b2 |
[V:2][B4D4] z2DE |
[V:3]B,4 z2B,C |
[V:4]B,,4 z4 |
[V:1]abag f2e2 |
[V:2]F2FG A2BG |
[V:3]D2DE F2GE |
[V:4]z6 E,G, |
[V:1]dedc B2b2 |
[V:2]FGFE D2DE |
[V:3]B4 z2B,C |
[V:4]B,4 z4 |
[V:1]abag f2e2 |
[V:2]F2FG A2BG |
[V:3]D2DE F2GE |
[V:4]z6 E,G, |
[V:1]dedc B2e2 |
[V:2]FGFE D2z2 |
[V:3]B4 z4 |
[V:4]B,4 z4 |
[V:1]EFED E2_d2 |
[V:2]B,8 |
[V:3]E,8- |
[V:4]G,,8 |
[V:1]c_dc=B c2_B2 |
[V:2]C6 G2 |
[V:3]E,6 C2- |
[V:4]A,,6 =E,2 |
[V:1]=A2_A2 G2c2 |
[V:2]F2F2 E2E2 |
[V:3]C2B,4 A,2 |
[V:4]F,2D,2 E,2A,,2 |
[V:1]E4 D2B2 |
[V:2]G4 F2D2 |
[V:3]B,6 FD |
[V:4]B,,2B,,4 B,,2- |
[V:1]=ABcd efg=a |
[V:2]E8 |
[V:3]E2=A,4 EC |
[V:4]B,,2B,,4 B,,2- |
[V:1]b2f2 d'2b2 |
[V:2]D2F2 B2d2 |
[V:3]B,2D2 F2B2 |
[V:4]B,,2B,,4 B,,2- |
[V:1]=a2c'2 e'2a2 |
[V:2]edcB =AGFE |
[V:3]cB=AG FEDC |
[V:4]B,,2B,,4 B,,2- |
[V:1]bc'b=a b2b2 |
[V:2]D2F2 B2d2 |
[V:3]B,2D2 F2B2 |
[V:4]B,,2B,,4 B,,2- |
[V:1]=a2c'2 e'2a2 |
[V:2]edcB =AGFE |
[V:3]cB=AG FEDC |
[V:4]B,,2B,,4 B,,2- |
[V:1]bc'b=a b2b2 |
[V:2]D2F2 B2d2 |
[V:3]B,2D2 F2B2 |
[V:4]B,,2B,,4 B,,2- |
[V:1]=a2c'2 e'2a2 |
[V:2]edcB =AGFE |
[V:3]cB=AG FEDC |
[V:4]B,,2B,,4 B,,2- |
[V:1]b8- |
[V:2]D4 z4 |
[V:3]B,4 z2G,A, |
[V:4]B,,2B,2 B,,2E,,F,, |
[V:1]b8- |
[V:2]z8 |
[V:3]B,2B,2 B,2A,B, |
[V:4]G,,2G,,2 G,,2F,,G,, |
[V:1]b4 a4- |
[V:2]z8 |
[V:3]C2C2 C2DE |
[V:4]A,,2A,,2 A,,2B,,C, |
[V:1]a4 B4- |
[V:2]z8 |
[V:3]F2FG A2GA |
[V:4]D,2D,E, F,2E,F, |
[V:1]Bdef g2B2 |
[V:2]z8 |
[V:3]BAGF E2G2 |
[V:4]G,F,E,D, C,2E,2 |
[V:1]Acde f2A2 |
[V:2]z8 |
[V:3]AGFE D2F2 |
[V:4]F,E,D,C, B,,2D,2 |
[V:1]GBcd e2G2 |
[V:2]z6 B,2 |
[V:3]G4 z2E,2 |
[V:4]E,C,B,,A,, G,,2G,2 |
[V:1]F2=E2 F2E2 |
[V:2]C2_D2 C2D2 |
[V:3]A,2B,2 A,2B,2 |
[V:4]A,2G,2 A,2G,2 |
[V:1]FGAB c2c2 |
[V:2]C4 z2A2 |
[V:3]A,4 z4 |
[V:4]A,4 z2D,2 |
[V:1]B2G2 A2GF |
[V:2]G2E2 F2ED |
[V:3]z8 |
[V:4]E,2E,2 B,,2B,,2 |
[V:1]E2c2 B2c2 |
[V:2]E2A2 G2A2 |
[V:3]z2D2 E2D2 |
[V:4]E,4 z4 |
[V:1]B2eB BAGA |
[V:2]G2G2 GFEF |
[V:3]E4 z4 |
[V:4]z2E,2 B,2B,2 |
[V:1]G2c2 B2c2 |
[V:2]E2A2 G2A2 |
[V:3]z2D2 E2D2 |
[V:4]E,4 z4 |
[V:1]B2eB BAGF |
[V:2]G2G2 GFED |
[V:3]E4 z2B,A, |
[V:4]z2E,2 B,,2B,,2 |
[V:1]E4 z4 |
[V:2]E4 z4 |
[V:3]G,4 z4 |
[V:4]E,4 z4 |
[V:1][G,4E4] z2b2 |
[V:2][G,6E6] B2 |
[V:3]G,4 G4 |
[V:4]E,8- |
[V:1]b4 a4 |
[V:2]_c2=c2 _d2=d2 |
[V:3]A4 F4 |
[V:4]E,8- |
[V:1]gfga g2g2 |
[V:2]e6 G2 |
[V:3]G6 =B,2 |
[V:4]E,6 G,2 |
[V:1]g4 f4 |
[V:2]A2=A2 B2=B2 |
[V:3]C4 D4 |
[V:4]G,,8- |
[V:1]edef e2g2 |
[V:2]c=Bcd c2ed |
[V:3]E4 z4 |
[V:4]G,,8 |
[V:1]g2_g2 f2c'2 |
[V:2]c8- |
[V:3]z4 F4- |
[V:4]=A,,8 |
[V:1]e2d2 b4 |
[V:2]c2Bc d2dc |
[V:3]FGFE D2F2 |
[V:4]B,,6 B,,=A,, |
[V:1]b2=ag g2f=e |
[V:2]B2B2 B2=AB |
[V:3]F4 =E2G2 |
[V:4]G,,4 G,4 |
[V:1]f6 f'e' |
[V:2]=A4 z2DE |
[V:3]F4 z4 |
[V:4]F,=E,F,G, F,_E,D,C, |
[V:1]d'2d'c' b=agf |
[V:2]F2F2 F2EF |
[V:3]z4 D4 |
[V:4]B,,8- |
[V:1]e2ed edcB |
[V:2]G2G2 G2=AB |
[V:3]E4 z4 |
[V:4]B,,8- |
[V:1]=A6 Bc |
[V:2]c2cd e2de |
[V:3]EFED C2DC |
[V:4]B,,8- |
[V:1]dcB=A B2c2 |
[V:2]fedc B2=A2 |
[V:3]B,4 z2F2 |
[V:4]B,,4 z2F,2 |
[V:1]defd B2c2 |
[V:2]B4 z2=A2 |
[V:3]F4 z2F2 |
[V:4]B,,4 z2F,2 |
[V:1]defd B2f2 |
[V:2]B4 z2c2 |
[V:3]F4 z2C2 |
[V:4]B,,4 z2=A,,2 |
[V:1]bc'd'c' b=agf |
[V:2]B4 z4 |
[V:3]D4 z4 |
[V:4]G,,4 z4 |
[V:1]efgf edcB |
[V:2]G4 z4 |
[V:3]E4 z4 |
[V:4]C,4 z4 |
[V:1]=ABcB AGFE |
[V:2]E2cB =AGFE |
[V:3]C2cB =AGFE |
[V:4]F,2CB, =A,G,F,E, |
[V:1]DBDB EBEB |
[V:2]DBDB EBEB |
[V:3]DBDB EBEB |
[V:4]D,B,D,B, E,B,E,B, |
[V:1]FBFB GBGB |
[V:2]FBFB GBGB |
[V:3]FBFB GBGB |
[V:4]F,B,F,B, G,B,G,B, |
[V:1]DBDB EBEB |
[V:2]DBDB EBEB |
[V:3]DBDB EBEB |
[V:4]D,B,D,B, E,B,E,B, |
[V:1]=EBEB FBFB |
[V:2]=EBEB FBFB |
[V:3]=EBEB FBFB |
[V:4]=E,B,E,B, F,B,F,B, |
[V:1]_GBGB FBFB |
[V:2]_GBGB FBFB |
[V:3]_GBGB FBFB |
[V:4]_G,B,G,B, F,B,F,B, |
[V:1]=E_dcB =ABAB |
[V:2]=E4 z4 |
[V:3]=E4 z4 |
[V:4]=E,4 z4 |
[V:1]b_dcB =ABAB |
[V:2]G8 |
[V:3]_D8 |
[V:4]=E,8 |
[V:1]=ABcd efg=a |
[V:2]F8- |
[V:3]C8 |
[V:4]E,8 |
[V:1]b=abf g^fge |
[V:2]F2z2 B,2BG |
[V:3]B,2z2 E,2z2 |
[V:4]D,2z2 E,2z2 |
[V:1]d2f2 =A2c2 |
[V:2]F2D2 E2=A,2 |
[V:3]F,2z2 F,2z2 |
[V:4]F,2z2 F,,2z2 |
[V:1]B4 z2Bc |
[V:2]B,4 z2DE |
[V:3]z2D,E, F,2z2 |
[V:4]z2B,,C, D,2z2 |
[V:1]d2z4 de |
[V:2]F2z4 Bc |
[V:3]z2DE F2z2 |
[V:4]z2B,C D2z2 |
[V:1]f2z4 fg |
[V:2]d2z4 de |
[V:3]z2DE F2z2 |
[V:4]z2B,C D2z2 |
[V:1]a2z4 ab |
[V:2]f2z4 fg |
[V:3]z2DE F2z2 |
[V:4]z2B,C D2z2 |
[V:1]c'2c'b a2ag |
[V:2]a2ag f2fe |
[V:3]z8 |
[V:4]z8 |
[V:1]f4 z2fg |
[V:2]d4 z2de |
[V:3]z2AG F2FE |
[V:4]z2FE D2DC |
[V:1]a2ag f2fe |
[V:2]f2fe d2dc |
[V:3]D2DE F2FG |
[V:4]B,2B,C D2DE |
[V:1]d4 z4 |
[V:2]B4 z4 |
[V:3]A4 z4 |
[V:4]F4 z4 |
[V:1]z6 GA |
[V:2]z8 |
[V:3]z8 |
[V:4]z8 |
[V:1]B2B2 B2AB |
[V:2]G2G2 G2z2 |
[V:3]E2E2 E2z2 |
[V:4]E,2E,2 E,2z2 |
[V:1]c2c2 c2de |
[V:2]A2A2 A2z2 |
[V:3]E2E2 E2z2 |
[V:4]E,2E,2 E,2z2 |
[V:1]f2fg a2ga |
[V:2][A,2D2]z2 [A,2D2]GF |
[V:3]B,2z2 B,2z2 |
[V:4]E,2z2 E,2z2 |
[V:1]bagf e2B2 |
[V:2]E4 z2B2 |
[V:3]G,4 z2B2 |
[V:4]E,4 z2B,2 |
[V:1]=A2_A2 G2_G2 |
[V:2]=A2_A2 G2_G2 |
[V:3]=A2_A2 G2_G2 |
[V:4]=A,2_A,2 G,2_G,2 |
[V:1]FEDE F2G2 |
[V:2]FEDE F2G2 |
[V:3]FEDE F2G2 |
[V:4]F,E,D,E, F,2G,2 |
[V:1]F2E2 D2C2 |
[V:2]F2E2 D2C2 |
[V:3]F2E2 D2C2 |
[V:4]F,2E,2 D,2C,2 |
[V:1]B,=A,B,C B,2GA |
[V:2]B,=A,B,C B,2z2 |
[V:3]B,=A,B,C B,2z2 |
[V:4]B,,=A,,B,,C, B,,2z2 |
[V:1]B2B2 B2AB |
[V:2]_D8 |
[V:3]G,8 |
[V:4]E,8- |
[V:1]c2c2 c2Bc |
[V:2]C8 |
[V:3]A,8 |
[V:4]E,8 |
[V:1]_d2Bc d2B2 |
[V:2]B,6 G2 |
[V:3]G,6 C2 |
[V:4]=E,8 |
[V:1]AGAB A2fg |
[V:2]F=EFG F2AG |
[V:3]C8 |
[V:4]F,8 |
[V:1]a2fg a2=B2 |
[V:2]F6 F2 |
[V:3]=B,6 AF |
[V:4]_D,8 |
[V:1]c4 z2cd |
[V:2]=E2CD E2EF |
[V:3]G4 z4 |
[V:4]C,4 z4 |
[V:1]=e2e2 e2de |
[V:2]G2G2 G2FG |
[V:3]z4 c4- |
[V:4]C,4 B,4 |
[V:1]f4 z2Bc |
[V:2]A4 z2DE |
[V:3]c_dcB AGFE |
[V:4]A,4 z4 |
[V:1]d2d2 d2cd |
[V:2]F2F2 F2EF |
[V:3]D4 B4- |
[V:4]B,,4 A,4 |
[V:1]e4 z4 |
[V:2]G4 z4 |
[V:3]BcBA GFED |
[V:4]G,A,G,F, E,2G,,2 |
[V:1]z8 |
[V:2]z8 |
[V:3]CEFE DFGF |
[V:4]A,,2=A,,2 B,,2=B,,2 |
[V:1]z8 |
[V:2]z8 |
[V:3]EBAG FcBA |
[V:4]C,2C2 D2D,2 |
[V:1]e4 _d'4 |
[V:2]z4 e4- |
[V:3]G2GA B2AB |
[V:4]E,2E,F, G,2F,G, |
[V:1]c'4 z4 |
[V:2]efe_d cdcB |
[V:3]c_dcB ABAG |
[V:4]A,4 z4 |
[V:1]f4 e'4 |
[V:2]=A4 f4- |
[V:3]F2=AB c2Bc |
[V:4]z2F,G, =A,2G,A, |
[V:1]d'4 z4 |
[V:2]fgfe dedc |
[V:3]dedc BcBA |
[V:4]B,4 z4 |
[V:1]g4 f'4 |
[V:2]=B2=B,C D2CD |
[V:3]G4 z4 |
[V:4]z2G,=A, =B,2A,B, |
[V:1]e'f'e'd' c'2c'b |
[V:2]E2F2 G2G2 |
[V:3]C2D2 E2=E2 |
[V:4]C4 z4 |
[V:1]abag f2ag |
[V:2]A2B2 c2cB |
[V:3]F2G2 A2z2 |
[V:4]z6 F,G, |
[V:1]fgfe dedc |
[V:2]ABAG F2^F2 |
[V:3]z8 |
[V:4]A,8 |
[V:1]=Bcdc BAGF |
[V:2]G4 z4 |
[V:3]z4 G,F,E,D, |
[V:4]G,4 z4 |
[V:1]Ecga gedc |
[V:2]z8 |
[V:3]C,4 z4 |
[V:4]C,4 C2=B,C |
[V:1]=BcdB GAGF |
[V:2]z8 |
[V:3]G,4 F2ED |
[V:4]D4 z4 |
[V:1]Ecga gedc |
[V:2]z8 |
[V:3]C4 z4 |
[V:4]C,4 C2=B,C |
[V:1]=BcdB GAGF |
[V:2]G,4 F2ED |
[V:3]z8 |
[V:4]D4 z4 |
[V:1]Ecec ecec |
[V:2]E8- |
[V:3]G,8 |
[V:4]C,8 |
[V:1]EB_dB dBdB |
[V:2]E8 |
[V:3]_D8 |
[V:4]G,,8 |
[V:1]c4 A4- |
[V:2]A,2C_D E2EF |
[V:3]C2A,B, C2C_D |
[V:4]A,,4 z4 |
[V:1]AGBA GFEG |
[V:2]B,4 e4- |
[V:3]E4 BAGB |
[V:4]E,4 _D4 |
[V:1]A4 z2_d'c' |
[V:2]efed ecBA |
[V:3]A2A,2 A2Bc |
[V:4]C4 z4 |
[V:1]b2ba g2gb |
[V:2]G4 E4- |
[V:3]_d2GA B2E2 |
[V:4]E,4 _D4 |
[V:1]a4 z2c'a |
[V:2]EFED E2E2 |
[V:3]A2A,2 A2EC |
[V:4]C4 A,,G,,A,,B,, |
[V:1]g2gf =e2eg |
[V:2]=E4 c4- |
[V:3]B,2BA G2G=E |
[V:4]C,4 B,4 |
[V:1]f4 z2af |
[V:2]c_dcB c2c2 |
[V:3]F2F,2 A2F2 |
[V:4]A,4 F,,=E,,F,,G,, |
[V:1]_g2gf e2ec |
[V:2]C4 A4- |
[V:3]E2E_D C2CE |
[V:4]A,,4 _G,4 |
[V:1]_d2f4 a2- |
[V:2]A2A_G F2FE |
[V:3]F2FE _D2z2 |
[V:4]F,4 z2_D,C, |
[V:1]a2f4 d2 |
[V:2]D2FG A2F2 |
[V:3]z2DE F2A2 |
[V:4]B,,8 |
[V:1]e2g4 b2- |
[V:2]G2BA G2GF |
[V:3]G2GF E2z2 |
[V:4]E,,4 z2E,_D, |
[V:1]b2g4 =e2 |
[V:2]=E2GA B2G2 |
[V:3]z2=EF G2B2 |
[V:4]C,8 |
[V:1]f2g4 a2- |
[V:2]c_dcB ABAG |
[V:3]ABAG FGFE |
[V:4]F,,4 z4 |
[V:1]a2B4 g2- |
[V:2]FEDF GABG |
[V:3]DEFD EFGE |
[V:4]B,,4 E,,4 |
[V:1]g2f4 e2 |
[V:2]c=BcB c2c2 |
[V:3]A,4 F,4 |
[V:4]A,,4 =A,,4 |
[V:1]d4 z2Bc |
[V:2]B4 z2DE |
[V:3]F,2D,E, F,2z2 |
[V:4]B,,2B,,C, D,2z2 |
[V:1]d2z4 de |
[V:2]F2z4 Bc |
[V:3]z2DE F2z2 |
[V:4]z2B,C D2z2 |
[V:1]f2z4 fg |
[V:2]d2z4 de |
[V:3]z2DE F2z2 |
[V:4]z2B,C D2z2 |
[V:1]a2z4 ab |
[V:2]f2z4 fg |
[V:3]z2DE F2z2 |
[V:4]z2B,C D2z2 |
[V:1]c'2c'b a2ag |
[V:2]a2ag f2fe |
[V:3]z8 |
[V:4]z8 |
[V:1]f4 z2fg |
[V:2]d4 z2de |
[V:3]z2AG F2FE |
[V:4]z2FE D2DC |
[V:1]a2ag f2fe |
[V:2]f2fe d2dc |
[V:3]D2DE F2FG |
[V:4]B,2B,C D2DE |
[V:1]d4 z4 |
[V:2]B4 z4 |
[V:3]A4 z4 |
[V:4]F4 z4 |
[V:1]z6 GA |
[V:2]z8 |
[V:3]z8 |
[V:4]z8 |
[V:1]B2B2 B2AB |
[V:2]G2G2 G2z2 |
[V:3]E2E2 E2z2 |
[V:4]E,2E,2 E,2z2 |
[V:1]c2c2 c2de |
[V:2]A2A2 A2z2 |
[V:3]E2E2 E2z2 |
[V:4]E,2E,2 E,2z2 |
[V:1]f2fg a2ga |
[V:2][D2A,2]z2 [A,2D2]GF |
[V:3]B,2z2 B,2z2 |
[V:4]E,2z2 E,2z2 |
[V:1]bagf e2z2 |
[V:2]E2z4 GA |
[V:3]G,2z4 EF |
[V:4]E,4 z4 |
[V:1]z2b2 g2z2 |
[V:2]BAGF G2EF |
[V:3]GFED E2CD |
[V:4]z2B,,2 E,2z2 |
[V:1]z2g2 e2z2 |
[V:2]GFED E2C_D |
[V:3]EDC=B, C2A,_B, |
[V:4]z2G,,2 C,2z2 |
[V:1]z2e2 c2AB |
[V:2]E_DCB, C2AB |
[V:3]CB,A,G, A,2AB |
[V:4]z2E,,2 A,,2A,B, |
[V:1]cBAG FEDC |
[V:2]cBAG FEDC |
[V:3]cBAG FEDC |
[V:4]CB,A,G, F,E,D,C, |
[V:1]B,DFE DCB,A, |
[V:2]B,DFE DCB,A, |
[V:3]B,DFE DCB,A, |
[V:4]B,,D,F,E, D,C,B,,A,, |
[V:1]G,EG,E A,EA,E |
[V:2]G,EG,E A,EA,E |
[V:3]G,EG,E A,EA,E |
[V:4]G,,E,G,,E, A,,E,A,,E, |
[V:1]B,EB,E CECE |
[V:2]B,EB,E CECE |
[V:3]B,EB,E CECE |
[V:4]B,,E,B,,E, C,E,C,E, |
[V:1]G,EG,E A,EA,E |
[V:2]G,EG,E A,EA,E |
[V:3]G,EG,E A,EA,E |
[V:4]G,,E,G,,E, A,,E,A,,E, |
[V:1]=A,EA,E B,EB,E |
[V:2]=A,EA,E B,EB,E |
[V:3]=A,EA,E B,EB,E |
[V:4]=A,,E,A,,E, B,,E,B,,E, |
[V:1]_CECE CECE |
[V:2]_CECE CECE |
[V:3]_CECE CECE |
[V:4]_C,E,C,E, C,E,C,E, |
[V:1]_C2E_G _c2c2 |
[V:2]_C2E2 E2E2 |
[V:3]_C2_G2 G2G2 |
[V:4]_C,2C,2 C,2C,2 |
[V:1]_c2_Gc e2e2 |
[V:2]E2E_G _c2c2 |
[V:3]_G2GG G2G2 |
[V:4]_C,2C,C, C,2C,2 |
[V:1]e2_ce _g2g2 |
[V:2]_c2_Gc e2e2 |
[V:3]_G2GG G2G2 |
[V:4]_C,2C,C, C,2C,2 |
[V:1]_g2eg _c'2c'2 |
[V:2]e2_ce _g2g2 |
[V:3]_G2GG E2E2 |
[V:4]_C,2C,C, C,2C,2 |
[V:1]_c'4 z4 |
[V:2]e4 z4 |
[V:3]_G4 z4 |
[V:4]_C,4 z4 |
[V:1]z6 ef |
[V:2]z8 |
[V:3]z8 |
[V:4]z8 |
[V:1]_g2g2 g2z2 |
[V:2]c2c2 c2z2 |
[V:3]E2E2 E2z2 |
[V:4]=A,2A,2 A,2z2 |
[V:1]z6 de |
[V:2]z8 |
[V:3]z8 |
[V:4]z8 |
[V:1]f2f2 f2z2 |
[V:2]=B2B2 B2z2 |
[V:3]D2D2 D2z2 |
[V:4]A,2A,2 A,2z2 |
[V:1]z6 ga |
[V:2]z6 Bc |
[V:3]z6 B,A, |
[V:4]z6 G,F, |
[V:1]b2b2 b2ag |
[V:2]_d2d2 d2cB |
[V:3]G,2G,2 G,2A,B, |
[V:4]=E,2E,2 E,2F,G, |
[V:1]f2f2 f2fg |
[V:2]A2A2 A2AB |
[V:3]C2C2 C2A,G, |
[V:4]A,2A,2 A,2F,E, |
[V:1]a2a2 a2gf |
[V:2]c2c2 c2BA |
[V:3]F,2F,2 F,2G,A, |
[V:4]D,2D,2 D,2E,F, |
[V:1]e2e2 e2c2 |
[V:2]G2G2 G2A2 |
[V:3]B,2B,2 B,2D2 |
[V:4]G,2G,2 G,2z2 |
[V:1]B2c2 B2c2 |
[V:2]G2A2 G2A2 |
[V:3]E2D2 E2D2 |
[V:4]z8 |
[V:1]B2eB A2GA |
[V:2]G2G2 F2EF |
[V:3]E4 z4 |
[V:4]z2E,2 B,2B,2 |
[V:1]G2c2 B2c2 |
[V:2]E2A2 G2A2 |
[V:3]z2D2 E2D2 |
[V:4]E,4 z4 |
[V:1]B2eB A2GF |
[V:2]G2G2 F2ED |
[V:3]E4 z4 |
[V:4]z2E,2 B,2B,,2 |
[V:1]E4 A/B/c3 |
[V:2]E4 z4 |
[V:3]z8 |
[V:4]C,4 z4 |
[V:1]z8 |
[V:2]z8 |
[V:3]z8 |
[V:4]z8 |
[V:1]B,4 f/g/a3 |
[V:2][A4B,4] z4 |
[V:3]F4 z4 |
[V:4]D,4 z4 |
[V:1]z8 |
[V:2]z8 |
[V:3]z8 |
[V:4]z8 |
[V:1]z4 G2zA |
[V:2]z4 G,2zA, |
[V:3]z4 E,2zF, |
[V:4]z4 E,,2zF,, |
[V:1]B2z2 B2z2 |
[V:2]B,2z2 B,2z2 |
[V:3]G,2z2 G,2z2 |
[V:4]G,,2z2 G,,2z2 |
[V:1]B2z2 A2zB |
[V:2]B,2z2 A,2zB, |
[V:3]G,2z2 F,2zG, |
[V:4]G,,2z2 F,,2zG,, |
[V:1]c2z2 c2z2 |
[V:2]C2z2 C2z2 |
[V:3]A,2z2 A,2z2 |
[V:4]A,,2z2 A,,2z2 |
[V:1]c2z4 GA |
[V:2]C2z6 |
[V:3]A,2z6 |
[V:4]A,,2z6 |
[V:1]B2B2 B2AB |
[V:2]G2G2 G2z2 |
[V:3]E2E2 E2z2 |
[V:4]E,2E,2 E,2z2 |
[V:1]c2c2 c2de |
[V:2]A2A2 A2z2 |
[V:3]E2E2 E2z2 |
[V:4]E,2E,2 E,2z2 |
[V:1]f2fg a2ga |
[V:2][D2A,2]z2 [A,2D2]GF |
[V:3]B,2z2 B,2z2 |
[V:4]E,2z2 E,2z2 |
[V:1]bagf e2dc' |
[V:2]E2z4 A2 |
[V:3]G,2z4 F2 |
[V:4]E,2z4 B,,2 |
[V:1]bagf e2dc' |
[V:2]G2z4 A2 |
[V:3]G2z4 F2 |
[V:4]E,4 z2B,,2 |
[V:1]bagf e2Dc |
[V:2]G2z4 Dc |
[V:3]G2z4 Dc |
[V:4]E,2z4 D,C |
[V:1]BAGF EDCB, |
[V:2]BAGF EDCB, |
[V:3]BAGF EDCB, |
[V:4]B,A,G,F, E,D,C,B,, |
[V:1]A,2z2 [F2d2A,2]z2 |
[V:2]A,2z2 [d2F2]z2 |
[V:3]A,2z2 B,2z2 |
[V:4]A,,2z2 B,,2z2 |
[V:1][e2E2G,2]z2 [f2B2D2]z2 |
[V:2][e2E2]z2 [A2B,2]z2 |
[V:3]E2z2 B,2z2 |
[V:4]E,2z2 B,,2z2 |
[V:1][g2E2B2]z6 |]
[V:2][G4B,4] z4 |]
[V:3]E,4 z4 |]
[V:4]E,,4 z4 |]

